!! 00010] TT[TB
!! Eigene Aufnahme
!!!OTL: Lama ye de liwu The priviledge of the Lama
!!!ARE: Neimeng
!! Ethnic Group: Menggu
!! MM, S. 221
!!!SCT: C0541
!!!YEM: Copyright 1995, estate of Helmut Schaffrath.
**kern
*ICvox
*Ivox
*M2/4
*k[]
*C:
{8dd
8dd
8ee
8ee
=1
8dd
8ee
16ee
16dd
8cc
=2
8a
16a
16cc
16dd
16cc
16a
16cc
=3
8.dd
16cc
8dd
8ee}
=4
{8g
16g
16a
8e
8g
=5
8cc
8cc
8dd
8ee
=6
16a
16cc
16a
16g
16g
16e
8cc
=7
2a}
=8
{8dd
8dd
8ee
8ee
=9
8dd
8ee
16ee
16dd
8cc
=10
8a
16a
16cc
16dd
16cc
16a
16cc
=11
8.dd
16cc
8dd
8ee}
=12
{8g
16g
16a
8e
8g
=13
8cc
8cc
8dd
8ee
=14
16a
16cc
16a
16g
16g
16e
8cc
=15
2a}
==
!!!AGN: NN
!! Saenger: Chao Lun Batou, der das Buch nur zum Nachschlagen
!!    benutzte und ansonsten auswendig sang. Da er aus dem Osten der
!!    Neimeng kommt, kennt er nicht so viele Lieder des Westens.
!!    Alle Lieder wurden mit erkaelteter, halber Stimme in meinem
!!    Zimmer gesungen. FOTO VORHANDEN (DIAS)  31.3.87
!!    1 Praller in Zeile 4, vorletzte Note. - ENTWEDER ANDERES LIED
!!    ODER SEHR STARKE VARIANTE.
!!!ONB: ESAC (Essen Associative Code) Database: CHINA
!!!AMT: simple duple
!!!AIN: vox
!!!EED: Helmut Schaffrath
!!!EEV: 1.0
*-
